X:1
T:Title
%%score { 1 | 2 }
L:1/8
Q:1/4=100
M:4/4
K:C
V:1 treble nm="Grand Piano"
V:2 bass 
V:1
 [Ec][Ec][GB][FA] [EG]ECE | [EG]2 [FG]2 G4 | GABc dcBA | G2 d2 d4 | %4
w: C.~B.~Widmeyer * * * * * * *||||
 [Ge][^F_e][G=e][=Fd] [Ec][EG][_E^F][=EG] | [GB]2 [G_B]2 A4 | G^FGA [=FB]AGA | B2 d2 [Ec]4 | %8
w: ||||
 [Ge]2 [^Ge]2 [Ae]3 [E=G] | [FA][EG][_E^F][=EG] [=FA][EG][_E^F][=EG] | d2 d2 d3 B | %11
w: |||
 [^Fd][Fc][DFB][CFA] [B,=FG]4 | [CEc]2 [Fc]2 [Ec]3 [EG] | [DF]EDC A4 | G G2 A BGed | %15
w: ||||
[M:9/8] [Ec]2 [Fc]- [Fc] [Ec]2- [Ec] z z |] %16
w: |
V:2
 [C,G,][C,G,][C,A,][C,B,] [C,C][C,G,C][C,E,][C,G,C] | [C,C]2 [D,B,]2[K:treble] [G,B,D]4 | %2
 [G,B,F][G,CF][G,DF][G,CF] [G,B,F][G,CF][G,DF][G,CF] | [G,B,F]2 [G,B,F]2 [G,B,F]4 | %4
 [C,C][C,C][C,C][C,C] [C,G,][C,C][C,C][C,C] | [E,C]2 [E,C]2 [F,CF]4 | %6
 [G,CE][^G,C_E][=G,C=E][F,CF] [D,B,][K:treble][F,CF][G,CE][G,B,F] | %7
 [G,DF]2 [G,B,F]2[K:bass] [C,C]4 | [C,C]2 [E,B,]2 [A,C]3 [C,C] | %9
 [C,C][C,C][C,C][C,C] [C,C][C,C][C,C][C,C] | [G,B,G]2 [A,C^F]2 [B,DG]3 [G,DF] | %11
 [D,D][D,A,]D,D, G,F,E,D, | C,2 [C,A,]2 [C,G,]3 [C,G,] | [B,,G,][C,G,C][D,G,B,][E,G,] [F,C]4 | %14
 [G,CE] [G,CE]2 [G,B,F] [G,DF][G,B,F][G,CG][G,B,F] | %15
[M:9/8][K:bass] [C,C]2 [C,A,]- [C,A,] [C,G,]2- [C,G,] z z |] %16

